svg/shield_alert_outline.svg

<svg xmlns="http://www.w3.org/2000/svg" viewBox="0 0 24 24"><path d="M21 11c0 5.55-3.84 10.74-9 12-5.16-1.26-9-6.45-9-12V5l9-4 9 4zm-9 10c3.75-1 7-5.46 7-9.78V6.3l-7-3.12L5 6.3v4.92C5 15.54 8.25 20 12 21M11 7h2v6h-2zm0 8h2v2h-2z"/></svg>

<?xml version="1.0" encoding="UTF-8"?><!DOCTYPE svg PUBLIC "-//W3C//DTD SVG 1.1//EN" "http://www.w3.org/Graphics/SVG/1.1/DTD/svg11.dtd"><svg xmlns="http://www.w3.org/2000/svg" xmlns:xlink="http://www.w3.org/1999/xlink" version="1.1" id="mdi-shield-alert-outline" width="24" height="24" viewBox="0 0 24 24"><path d="M21,11C21,16.55 17.16,21.74 12,23C6.84,21.74 3,16.55 3,11V5L12,1L21,5V11M12,21C15.75,20 19,15.54 19,11.22V6.3L12,3.18L5,6.3V11.22C5,15.54 8.25,20 12,21M11,7H13V13H11V7M11,15H13V17H11V15Z" /></svg>
